X: 487
T: Wednesday Night Polka
C: Dave Ingledew
S: https://lesters-tune-a-day.blogspot.co.uk/2017/11/tune-487-wednesday-night-polka.html 2017-11-10
N: Origin unknown; Lester learned it from a visitor to his shop.
N: Dave said this is a badly mangled version of his tune, and he sent me his version.
M: 4/4
K: G
L: 1/8
|:\
GA Bc d2 d2 | e2 e2 d2 d2 | c2 B2 A2 G2 | B4 A4 |\
GA Bc d2 d2 | e2 e2 d2 d2 | c2 A2 F2 A2 |1 G2 d2 d2 d2 :|2 G4 G4 ||
|:\
E4 E4 | c2 c2 B4 | A2 G2 F2 G2 | B4 A4 |\
E4 E4 | c2 c2 B4 | A2 G2 F2 A2 |1 G4 G4 :|2 HG2 d2 d2 d2 |]
